dist/images/icons/key.svg

<svg width="28" height="29" viewBox="0 0 28 29" fill="none" xmlns="http://www.w3.org/2000/svg">
<path d="M21.6344 11.1875C22.1648 11.1875 22.6625 10.9796 23.0398 10.6076C23.8164 9.83082 23.8164 8.57264 23.0398 7.79585L20.4969 5.24666C19.7477 4.49722 18.4352 4.49722 17.6859 5.24666C16.9094 6.02345 16.9094 7.28163 17.6859 8.05842L20.2289 10.6076C20.6063 10.9796 21.1039 11.1875 21.6344 11.1875ZM18.5883 6.1438C18.725 6.00704 18.9 5.93593 19.0914 5.93593C19.2828 5.93593 19.4633 6.01251 19.5945 6.1438L22.1375 8.69298C22.4164 8.97197 22.4164 9.42601 22.1375 9.705C21.8695 9.97305 21.3992 9.97305 21.1258 9.705L18.5828 7.15582C18.3094 6.87683 18.3094 6.42279 18.5883 6.1438Z" fill="#00B4E3"/>
<path d="M27.3656 8.29912L19.9883 0.919614C19.168 0.099061 17.7352 0.099061 16.9148 0.919614L10.8172 7.02453C10.407 7.4348 10.1828 7.98184 10.1828 8.5617C10.1828 9.14155 10.407 9.68859 10.8172 10.0989L16.9148 16.2038L16.543 16.5812C16.3734 16.7508 16.1492 16.8438 15.9086 16.8438C15.668 16.8438 15.4437 16.7508 15.2742 16.5812L13.4969 14.7979C13.2453 14.5517 12.8461 14.5517 12.5945 14.7979L9.09453 18.2989C8.84844 18.5451 8.84844 18.9499 9.09453 19.2015C9.22031 19.3274 9.37891 19.3875 9.54297 19.3875C9.70703 19.3875 9.87109 19.3274 9.99141 19.2015L13.043 16.1491L13.7375 16.8438L9.91484 20.6621H8.26875C7.91875 20.6621 7.63438 20.9466 7.63438 21.2967V22.5713H6.36016C6.01016 22.5713 5.72578 22.8557 5.72578 23.2058V24.4804H4.45703C4.10703 24.4804 3.82266 24.7649 3.82266 25.115V26.7616L3.56016 27.0241H1.27422V24.7539L11.9055 14.1086C12.1516 13.8625 12.1516 13.4577 11.9055 13.206L11.7195 13.02C11.55 12.8505 11.457 12.6262 11.457 12.3855C11.457 12.0354 11.1727 11.7509 10.8227 11.7509C10.4727 11.7509 10.1883 12.0354 10.1883 12.3909C10.1883 12.845 10.325 13.2771 10.582 13.6382L0.185938 24.0373C0.065625 24.1577 0 24.3163 0 24.4859V27.6696C0 28.0197 0.284375 28.3042 0.634375 28.3042H3.81719C3.98672 28.3042 4.15078 28.2386 4.26562 28.1182L4.9 27.4836C5.02031 27.3633 5.08594 27.2047 5.08594 27.0351V25.7605H6.36016C6.71016 25.7605 6.99453 25.476 6.99453 25.1259V23.8513H8.26875C8.61875 23.8513 8.90312 23.5669 8.90312 23.2168V21.9422H10.1773C10.3469 21.9422 10.5109 21.8765 10.6258 21.7562L14.6562 17.7245C15.0172 17.9816 15.4492 18.1184 15.9031 18.1184C16.4828 18.1184 17.0242 17.8886 17.4344 17.4838L18.2656 16.6578C18.5117 16.4117 18.5117 16.0068 18.2656 15.7552L11.7195 9.19626C11.55 9.02668 11.457 8.80239 11.457 8.5617C11.457 8.321 11.55 8.09672 11.7195 7.92713L17.8172 1.81675C18.1562 1.47759 18.7469 1.47759 19.0914 1.81675L26.4633 9.19626C26.6328 9.36584 26.7258 9.59012 26.7258 9.83082C26.7258 10.0715 26.6328 10.2958 26.4633 10.4654L20.3656 16.5812C20.1961 16.7508 19.9719 16.8438 19.7312 16.8438C19.3812 16.8438 19.0969 17.1283 19.0969 17.4784C19.0969 17.8285 19.3812 18.1129 19.7312 18.1129C20.3109 18.1129 20.8578 17.8886 21.268 17.4784L27.3656 11.3735C27.7758 10.9632 28 10.4161 28 9.83629C28 9.25643 27.7758 8.70939 27.3656 8.29912Z" fill="#00B4E3"/>
</svg>

<svg width="28" height="29" viewBox="0 0 28 29" fill="none" xmlns="http://www.w3.org/2000/svg"><path d="M21.634 11.188a1.988 1.988 0 001.405-3.392l-2.542-2.55c-.75-.749-2.062-.749-2.811 0a1.988 1.988 0 000 2.812l2.543 2.55c.377.372.875.58 1.405.58zm-3.046-5.044a.711.711 0 011.006 0l2.543 2.549a.717.717 0 010 1.012.737.737 0 01-1.011 0l-2.543-2.55a.722.722 0 01.005-1.011z" fill="#00B4E3"/><path d="M27.366 8.3L19.988.92c-.82-.82-2.253-.82-3.073 0l-6.098 6.105a2.16 2.16 0 00-.634 1.537c0 .58.224 1.127.634 1.537l6.098 6.105-.372.377a.89.89 0 01-.634.263.889.889 0 01-.635-.263l-1.777-1.783a.644.644 0 00-.902 0l-3.5 3.5a.644.644 0 000 .904.624.624 0 00.448.185c.164 0 .328-.06.448-.186l3.052-3.052.695.695-3.823 3.818H8.269a.635.635 0 00-.635.635v1.274H6.36a.635.635 0 00-.634.635v1.274H4.457a.635.635 0 00-.634.635v1.647l-.263.262H1.274v-2.27l10.632-10.645a.644.644 0 000-.903l-.187-.186a.89.89 0 01-.262-.634.635.635 0 10-1.269.005c0 .454.137.886.394 1.247L.186 24.038a.63.63 0 00-.186.448v3.184c0 .35.284.634.634.634h3.183a.62.62 0 00.449-.186l.634-.634a.629.629 0 00.186-.449v-1.274H6.36c.35 0 .635-.285.635-.635V23.85h1.274c.35 0 .634-.284.634-.634v-1.275h1.274a.62.62 0 00.449-.186l4.03-4.032a2.17 2.17 0 002.778-.24l.832-.826a.644.644 0 000-.903L11.72 9.196a.89.89 0 01-.263-.634.89.89 0 01.262-.635l6.098-6.11a.925.925 0 011.274 0l7.372 7.38a.89.89 0 01.263.634.89.89 0 01-.263.634l-6.097 6.116a.889.889 0 01-.635.263.635.635 0 000 1.269 2.16 2.16 0 001.537-.635l6.098-6.105c.41-.41.634-.957.634-1.537a2.16 2.16 0 00-.634-1.537z" fill="#00B4E3"/></svg>
